X:1
T:Title
%%score [ ( 1 2 ) ( 3 4 ) ]
L:1/8
Q:1/4=120
M:none
K:Bb
V:1 treble nm="Midi_74"
V:2 treble 
V:3 bass nm="Midi_74"
V:4 bass 
V:1
 B8 | d4 B4 | F8 || B8 | A4 B4 | e4 d4 | c8 || B8 | d4 B4 | G8 || B8 | A4 B4 | %12
 d4"^Thomas Turton\n(1780-1864)" c4 | B8 | %14
V:2
 F8 | F4 F4 | F8 || F8 | F4 F4 | F4 F4 | F8 || D8 | ^F4 F4 | G8 || F8 | E4 D4 | F4 (F2 E2) | D8 | %14
V:3
 D8 | B,4 B,4 | A,8 || B,8 | C4 B,4 | A,4 B,4 | A,8 || B,8 | B,4 B,4 | B,8 || F,8 | F,4 (F,2 B,2) | %12
 B,4 A,4 | B,8 | %14
V:4
 B,8 | B,,4 D,4 | F,8 || D,8 | E,4 D,4 | C,4 B,,4 | F,8 || G,8 | D,4 D,4 | E,8 || D,8 | C,4 B,,4 | %12
 F,4 F,4 | B,,8 | %14

